Catalina-light/actions/22/view-certificate-sign.svg

<?xml version="1.0" encoding="UTF-8" standalone="no"?>
<svg
   xmlns:dc="http://purl.org/dc/elements/1.1/"
   xmlns:cc="http://creativecommons.org/ns#"
   xmlns:rdf="http://www.w3.org/1999/02/22-rdf-syntax-ns#"
   xmlns:svg="http://www.w3.org/2000/svg"
   xmlns="http://www.w3.org/2000/svg"
   xmlns:sodipodi="http://sodipodi.sourceforge.net/DTD/sodipodi-0.dtd"
   xmlns:inkscape="http://www.inkscape.org/namespaces/inkscape"
   viewBox="0 0 22 22"
   id="svg3545"
   version="1.1"
   inkscape:version="0.91 r13725"
   sodipodi:docname="view-certificate-sign.svg">
  <metadata
     id="metadata3553">
    <rdf:RDF>
      <cc:Work
         rdf:about="">
        <dc:format>image/svg+xml</dc:format>
        <dc:type
           rdf:resource="http://purl.org/dc/dcmitype/StillImage" />
      </cc:Work>
    </rdf:RDF>
  </metadata>
  <sodipodi:namedview
     pagecolor="#ffffff"
     bordercolor="#666666"
     borderopacity="1"
     objecttolerance="10"
     gridtolerance="10"
     guidetolerance="10"
     inkscape:pageopacity="0"
     inkscape:pageshadow="2"
     inkscape:window-width="640"
     inkscape:window-height="480"
     id="namedview3551"
     showgrid="false"
     inkscape:zoom="28.954545"
     inkscape:cx="4.8524333"
     inkscape:cy="11"
     inkscape:current-layer="svg3545" />
  <defs
     id="defs3051">
    <style
       type="text/css"
       id="current-color-scheme">
      .ColorScheme-Text {
        color:#4d4d4d
      }
      </style>
  </defs>
  <path
     style="color:#4d4d4d;fill:currentColor;fill-opacity:1;stroke:none"
     class="ColorScheme-Text"
     d="M 3.56744,4.2 C 3.252672,4.2 3,4.469424 3,4.80312 L 3,16.396872 C 3,16.730576 3.252672,17 3.56744,17 l 14.865128,0 C 18.747344,17 19,16.730576 19,16.396872 L 19,4.80312 C 19,4.469424 18.747352,4.2 18.432568,4.2 L 3.56744,4.2 Z m 5.789232,3.559376 c 0.919504,0 1.662488,0.789248 1.662488,1.764056 0,0.974816 -0.742976,1.762504 -1.662488,1.762504 -0.2152,0 -0.411976,-0.04088 -0.588064,-0.103128 l -0.87988,0.932816 -0.586584,0 0,0.621872 -0.586592,0 0,0.62188 -0.978632,0 0,-1.035944 2.054528,-2.17812 C 7.732728,9.937904 7.692704,9.73084 7.692704,9.523432 c 0,-0.974808 0.744472,-1.764056 1.663968,-1.764056 z m 6.00148,0.04064 c 0.0476,0 0.09298,0.02048 0.126744,0.05624 l 0.72512,0.768752 c 0.07024,0.07448 0.07024,0.195808 0,0.270312 L 15.8062,9.325008 14.826104,8.285944 15.229936,7.856256 c 0.03376,-0.03576 0.0806,-0.05624 0.128224,-0.05624 z m -5.51364,0.582808 c -0.332592,0 -0.586592,0.26928 -0.586592,0.62188 0,0.352592 0.254,0.621872 0.586592,0.621872 0.332584,0 0.588056,-0.26928 0.588056,-0.621872 0,-0.3526 -0.255472,-0.62188 -0.588056,-0.62188 z m 4.853352,0.03752 0.980112,1.039064 L 15.537952,9.60784 14.557856,8.568776 14.697872,8.420344 Z M 14.431104,8.70472 15.4112,9.743776 15.269712,9.892216 14.289608,8.853152 14.431112,8.70472 Z m -0.268248,0.282808 0.980104,1.040624 -2.761968,2.928128 c -0.01968,0.02088 -0.04424,0.03584 -0.07072,0.04528 l -1.09212,0.389064 c -0.0188,0.0064 -0.03832,0.0094 -0.05752,0.0094 -0.04696,0 -0.09253,-0.01992 -0.12676,-0.05624 -0.0484,-0.05128 -0.0644,-0.126576 -0.04272,-0.195312 l 0.36552,-1.157816 c 0.0089,-0.02792 0.02456,-0.05408 0.04416,-0.07496 L 14.1628,8.987528 Z"
     id="path3549"
     inkscape:connector-curvature="0" />
</svg>

<svg version="1.1" viewBox="0 0 22 22" xmlns="http://www.w3.org/2000/svg">
<defs>
<style id="current-color-scheme" type="text/css">.ColorScheme-Text {
        color:#4d4d4d
      }</style>
</defs>
<path class="ColorScheme-Text" d="m3.5674 4.2c-0.31477 0-0.56744 0.26942-0.56744 0.60312v11.594c0 0.3337 0.25267 0.60313 0.56744 0.60313h14.865c0.31478 0 0.56743-0.26942 0.56743-0.60313v-11.594c0-0.3337-0.25265-0.60312-0.56743-0.60312h-14.865zm5.7892 3.5594c0.9195 0 1.6625 0.78925 1.6625 1.7641 0 0.97482-0.74298 1.7625-1.6625 1.7625-0.2152 0-0.41198-0.04088-0.58806-0.10313l-0.87988 0.93282h-0.58658v0.62187h-0.58659v0.62188h-0.97863v-1.0359l2.0545-2.1781c-0.05872-0.20741-0.098744-0.41447-0.098744-0.62188 0-0.97481 0.74447-1.7641 1.664-1.7641zm6.0015 0.04064c0.0476 0 0.09298 0.02048 0.12674 0.05624l0.72512 0.76875c0.07024 0.07448 0.07024 0.19581 0 0.27031l-0.40382 0.42969-0.9801-1.0391 0.40383-0.42969c0.03376-0.03576 0.0806-0.05624 0.12822-0.05624zm-5.5136 0.58281c-0.33259 0-0.58659 0.26928-0.58659 0.62188 0 0.35259 0.254 0.62187 0.58659 0.62187 0.33258 0 0.58806-0.26928 0.58806-0.62187 0-0.3526-0.25547-0.62188-0.58806-0.62188zm4.8534 0.03752 0.98011 1.0391-0.14002 0.14843-0.9801-1.0391 0.14002-0.14843zm-0.26676 0.28438 0.9801 1.0391-0.14149 0.14844-0.9801-1.0391 0.1415-0.14843zm-0.26825 0.28281 0.9801 1.0406-2.762 2.9281c-0.01968 0.02088-0.04424 0.03584-0.07072 0.04528l-1.0921 0.38906c-0.0188 0.0064-0.03832 0.0094-0.05752 0.0094-0.04696 0-0.09253-0.01992-0.12676-0.05624-0.0484-0.05128-0.0644-0.12658-0.04272-0.19531l0.36552-1.1578c0.0089-0.02792 0.02456-0.05408 0.04416-0.07496l2.762-2.9282z" color="#4d4d4d" fill="currentColor"/>
</svg>
